client/public/assets/icons/utility/money.svg

<?xml version="1.0"?><svg xmlns="http://www.w3.org/2000/svg" width="52" height="52" viewBox="0 0 52 52"><path fill="#fff" d="m30.1 26.1c0-2.3 1.4-4.3 3.3-5.3-0.3-3.9-3.5-6.9-7.5-6.9-4.1 0-7.5 3.4-7.5 7.5s3.4 7.5 7.5 7.5c1.5 0 3-0.5 4.1-1.3v-1.5z m0 10.3v-1.9c0-0.7 0.1-1.3 0.3-1.9h-17.6c0-2.9-2.3-5.3-5.3-5.3v-11.2c2.9 0 5.3-2.3 5.3-5.3h26.3c0 2.9 2.3 5.3 5.3 5.3v4h3.8c0.7 0 1.3 0.1 1.9 0.3v-10.7c0-2.5-2-4.5-4.5-4.5h-39.1c-2.5 0-4.5 2-4.5 4.5v24.2c0 2.5 2 4.5 4.5 4.5h24c-0.2-0.6-0.4-1.3-0.4-2z m19.9 8.5c0 1-1 1.9-2 1.9h-12c-1 0-1.9-0.9-1.9-1.9v-1.9c0-1 0.9-1.9 1.9-1.9h12.1c1 0 1.9 0.9 1.9 1.9v1.9z m0-8.4c0 1-1 1.9-2 1.9h-12c-1 0-1.9-0.9-1.9-1.9v-1.9c0-1 0.9-1.9 1.9-1.9h12.1c1 0 1.9 0.9 1.9 1.9v1.9z m0-8.5c0 1-1 1.9-2 1.9h-12c-1 0-1.9-0.9-1.9-1.9v-1.9c0-1 0.9-1.9 1.9-1.9h12.1c1 0 1.9 0.9 1.9 1.9v1.9z"></path></svg>

<?xml version="1.0" encoding="utf-8"?>
<!-- Generator: Adobe Illustrator 21.1.0, SVG Export Plug-In . SVG Version: 6.00 Build 0)  -->
<svg version="1.1" id="Layer_1" xmlns="http://www.w3.org/2000/svg" xmlns:xlink="http://www.w3.org/1999/xlink" x="0px" y="0px"
	 width="52px" height="52px" viewBox="0 0 52 52" enable-background="new 0 0 52 52" xml:space="preserve">
<path fill="#FFFFFF" d="M30.1,26.1c0-2.3,1.4-4.3,3.3-5.3c-0.3-3.9-3.5-6.9-7.5-6.9c-4.1,0-7.5,3.4-7.5,7.5c0,4.1,3.4,7.5,7.5,7.5
	c1.5,0,3-0.5,4.1-1.3V26.1z"/>
<path fill="#FFFFFF" d="M30.1,36.4v-1.9c0-0.7,0.1-1.3,0.3-1.9H12.8c0-2.9-2.3-5.3-5.3-5.3V16.1c2.9,0,5.3-2.3,5.3-5.3h26.3
	c0,2.9,2.3,5.3,5.3,5.3v4h3.8c0.7,0,1.3,0.1,1.9,0.3V9.7c0-2.5-2-4.5-4.5-4.5H6.5C4,5.2,2,7.2,2,9.7v24.2c0,2.5,2,4.5,4.5,4.5h24
	C30.3,37.8,30.1,37.1,30.1,36.4z"/>
<path fill="#FFFFFF" d="M50,44.9c0,1-1,1.9-2,1.9H36c-1,0-1.9-0.9-1.9-1.9V43c0-1,0.9-1.9,1.9-1.9h12.1c1,0,1.9,0.9,1.9,1.9V44.9
	L50,44.9z"/>
<path fill="#FFFFFF" d="M50,36.5c0,1-1,1.9-2,1.9H36c-1,0-1.9-0.9-1.9-1.9v-1.9c0-1,0.9-1.9,1.9-1.9h12.1c1,0,1.9,0.9,1.9,1.9V36.5
	L50,36.5z"/>
<g>
	<path fill="#FFFFFF" d="M50,28c0,1-1,1.9-2,1.9H36c-1,0-1.9-0.9-1.9-1.9v-1.9c0-1,0.9-1.9,1.9-1.9h12.1c1,0,1.9,0.9,1.9,1.9V28
		L50,28z"/>
</g>
</svg>
